!!!!SEGMENT: pl-wumfc--n53446--001-009_moniuszko-stanislaw--hrabina-no-7b-final-chor.krn
!!!cenid: 18xx:4096
!!!COM: Moniuszko, Stanisław
!!!COM-rismID: pe30008351
!!!CDT: 1819/05/05-1872/06/04
!!!CNT: Polish
!!!OPR: Hrabina
!!!OTL: No. 7b. Finał. Chór
!!!OMV: 009
!!!PDT:
!!!AGN: Secular; Opera
!!!YEC: Copyright 2022 Narodowy Instytut Fryderyka Chopina (https://polishscores.org)
!!!YEM: License CC-BY-4.0 (https://creativecommons.org/licenses/by/4.0)
!!!SMS-siglum: PL-Wumfc
!!!SMS-shelfmark: N53446
!!!SMS-shelfwork: 001-009 M
!!!SMS-variant:
!!!SMS-altvar:
!!!NIFC-rismSourceID: 1001165649
!!!NIFC-rismChildID: 1001165649
!!!NIFC-islandoraID: pl-wumfc:6884
!!!URL-pdf-islandora: https://repozytorium.nifc.pl/islandora/object/pl-wumfc%3A6884/datastream/PDF/view
!!!URL-scan: https://polish.musicsources.pl/pl/lokalizacje/galeria/druki-muzyczne/12579 @EN{Scan on Polish Music Sources Website} @PL{Skany w portalu Dziedzictwo Muzyki Polskiej w otwartym dostępie}
!!!IIIF:
!!!ONB-nifc:
!!!AIN: 1 piano
!!!key: C
**kern	**kern	**text	**dynam	**fing
*part1	*part1	*	*	*
*staff2	*staff1	*	*	*
*I"[Piano.]	*I"[Piano.]	*	*	*
*Ipiano	*Ipiano	*	*	*
*ICklav	*ICklav	*	*	*
*clefF4	*clefG2	*	*	*
*k[]	*k[]	*	*	*
*C:	*C:	*	*	*
*M3/4	*M3/4	*	*	*
=1	=1	=1	=1	=1
!!LO:TX:B:a:t=Maestoso.
!	!LO:TX:i:t=("Panowie i damy tryumfalnie wprowadzają dwie subretki, które niosą suknię balową"):note=didaskalia	!	!	!
!	!LO:TX:t=P:problem:cały tekst zapisany ponad pięciolinią	!	!	!
4C 4GG 4CC/	4gg 4ee 4cc 4g\	.	.	.
4E 4C 4GG 4EE/	8.cccL 8.gg 8.cc^^\	.	.	.
.	16bbJk 16b\	.	.	.
4G 4D 4GG/	8.aaL 8.ff 8.dd 8.a^^\	.	.	.
.	16bbJk 16b\	.	.	.
=2	=2	=2	=2	=2
8c 8G 8E 8C^^\	8ccc 8ee 8cc^^\	.	.	.
(24d\LL	(24ddd\LL	.	.	.
24c\	24ccc\	.	.	.
24B\JJ	24bb\JJ	.	.	.
8c\L)	8ccc\L)	.	.	.
8e'\	8eee'\	.	.	.
8G'\J	8gg'\J	.	.	.
8r	8r	.	.	.
=3	=3	=3	=3	=3
*	*^	*	*	*
4c 4A 4F\	8.aaL 8.ff 8.cc^^\	2ryy	.	.	.
.	16cccJk 16cc\	.	.	.	.
4c 4G 4E\	4gg 4cc 4g\	.	.	.	.
4G 4D 4BB\	8.dd^^/L	4g\	.	.	.
.	16ff/Jk	.	.	.	.
!!LO:LB:g=original
=4	=4	=4	=4	=4	=4
8c 8G 8E 8C\	8ee^^/	8cc 8g\	.	.	.
(24fLL 24d\	(24ffLL 24dd\	8ryy	.	.	.
24e 24c\	24ee 24cc\	.	.	.	.
24dJJ 24B\	24ddJJ 24b\	.	.	.	.
8eL 8c\)	8eeL 8cc\)	2ryy	.	.	.
8f 8d'\	8ff 8dd'\	.	.	.	.
8gJ 8e'\	8ggJ 8ee'\	.	.	.	.
8r	8r	.	.	.	.
=5	=5	=5	=5	=5	=5
4c 4A 4F\	8.aaL 8.ff 8.cc 8.a^^\	2ryy	.	.	.
.	16cccJk 16cc\	.	.	.	.
4c 4G 4E\	4gg 4cc 4g^^\	.	.	.	.
4G 4D 4BB\	8.dd^^/L	4g\	.	.	.
.	16ff/Jk	.	.	.	.
=6	=6	=6	=6	=6	=6
8c 8G 8E 8C\	8ee^^/	8cc 8g\	.	.	.
(24fLL 24d\	(24ffLL 24dd\	8ryy	.	.	.
24e 24c\	24ee 24cc\	.	.	.	.
24dJJ 24B\	24ddJJ 24b\	.	.	.	.
8eL 8c\)	8eeL 8cc\)	2ryy	.	.	.
8f 8d'\	8ff 8dd'\	.	.	.	.
8gJ 8e'\	8ggJ 8ee'\	.	.	.	.
8r	8r	.	.	.	.
*	*v	*v	*	*	*
!!LO:LB:g=original
=7	=7	=7	=7	=7
8.FL 8.FF/	8.aaL 8.ff 8.cc^^\	.	.	.
16DJk 16DD/	16dddJk 16aa 16ff 16dd\	.	.	.
4G 4GG/	4ccc 4gg 4ee\	.	.	.
4GG 4GGG/	(4bb 4ff 4ddT\	.	.	.
.	16qqaa/LL	.	.	.
.	16qqbb/JJ	.	.	.
=8	=8	=8	=8	=8
*	*^	*	*	*
!	!LO:TX:t=P:problem:tekst francuski wpisany kursywą	!	!	!	!
8GG 8CC/	8ccc 8ee 8cc\)	2ryy	Hr: Mais	.	.
8r	16cc'\LL	.	ce	p	.
.	16cc'\JJ	.	.	.	.
4r	8b'/L	.	n'est	.	.
.	8a'/J	.	pas	.	.
8r	[4g/	8r	mal!	.	.
8C 8CC/	.	8e 8c 8G\	.	.	.
=9	=9	=9	=9	=9	=9
8BB 8BBB/	8g/]	8f 8d 8G\	mais	.	.
8r	16dd'/LL	8r	ce	.	.
.	16dd'/JJ	.	n'est	.	.
4r	8b'/L	4r	pas	.	.
.	8a'/J	.	.	.	.
8r	16g/	8r	mal!	.	.
!	!	!LO:TX:i:a:t=Damy&colon;	!	!	!
.	16g/LL	.	C'est	.	.
8G 8GG/	16g/	8f 8d\	une	.	.
.	16g/JJ	.	mer-	.	.
*	*v	*v	*	*	*
=10	=10	=10	=10	=10
4c 4C\	(>4.ee 4.g 4.e/	-veille!	.	.
4E\	.	.	.	.
.	8ccL 8g 8e/)	Ach	.	.
4G\	8b 8g 8d/	cza-	.	.
.	8ddJ 8g 8f/	-ru-	.	.
!!LO:LB:g=original
=11||	=11||	=11||	=11||	=11||
!!LO:TX:B:a:t=Andantino.
8C/	16cc 16g 16e/	-ją-	p	.
!	!LO:TX:i:b:t=scherzando	!	!	!
.	(32gg\LLL	-ca.	.	.
.	32aa\JJJ	.	.	.
4c 4G 4E\	16gg\LL)	.	.	.
.	16ff'\JJ	.	.	.
.	(16ee\LL	.	.	.
.	16gg\	.	.	.
8c 8G 8E\	16ccc\)	.	.	.
.	16bb'\JJ	Za-	.	.
.	8qbb/	.	.	.
8C\L	(16aa\LL	-wdzię-	.	.
.	16gg#X\)	-cza	.	.
8cJ 8F#X 8D#X\	16aa'\	.	.	.
.	16bb'\JJ	.	.	.
=12	=12	=12	=12	=12
8C/	16ccc\	wdów-	.	.
.	(32ggn\LLL	-ka	.	.
.	32aa\JJJ	.	.	.
4c 4G 4E\	16gg\LL)	.	.	.
.	16ff'\JJ	.	.	.
.	(16ee\LL	.	.	.
.	16gg\	.	.	.
8c 8G 8E\	16ccc\)	.	.	.
.	16bb'\JJ	.	.	.
.	8qbb/	.	.	.
8C\L	(16aa\LL	mi	.	.
.	16gg#X\)	.	.	.
8cJ 8F#X 8D#X\	16aa'\	.	.	.
.	16bb'\JJ	ten	.	.
=13	=13	=13	=13	=13
8C/	16ccc\	.	.	.
.	(32ggn\LLL	bal,	.	.
.	32aa\JJJ	.	.	.
4c 4G 4E\	16gg\LL)	.	.	.
.	16ff'\JJ	.	.	.
.	(16ee\LL	.	.	.
.	16dd\)	.	.	.
8c 8G 8E\	16cc'\	.	.	.
.	16dd'\JJ	a	.	.
8F#X\L	(16ee-X\LL	.	.	.
.	16cc\)	de-	.	.
8cJ 8A\	16a'\	.	.	.
.	16f#X'\JJ	-kla-	.	.
!!LO:LB:g=original
=14	=14	=14	=14	=14
*	*^	*	*	*
8G\L	16g/	4ryy	-ra-	.	.
.	(32g/LLL	.	.	.	.
.	32a/JJJ	.	.	.	.
8enJ 8c\	16g/LL)	.	.	.	.
.	16fn'/JJ	.	.	.	.
8r	(<16e/LL	8e\L	.	.	.
.	16ee/JJ)	.	.	.	.
8eL 8G'\	16cc#X/	16a\L	-cye	.	.
.	16r	16g\JJ	.	.	.
8A 8G'\	16dd/	16f#X\LL	me	.	.
.	16r	16a\	.	.	.
8dJ 8G'\	16b/	16g\	od-	.	.
.	16r	16fn\JJ	.	.	.
=15	=15	=15	=15	=15	=15
*ped	*	*	*	*	*
!	!	!	!	!LO:DY:b:t=un poco più f	!
8C 8CC/	16cc/	16e\	-trą-	f	.
.	(32gg\LLL	16ryy	.	.	.
.	32aa\JJJ	.	-ca.	.	.
4e 4c 4G 4E\	16gg\LL)	8ryy	.	.	.
.	16ff'\JJ	.	.	.	.
*Xped	*	*	*	*	*
.	(16ee\LL	2ryy	Panowie:	.	.
.	16gg\	.	.	.	.
8eL 8c 8G 8E\	16ccc\)	.	.	.	.
.	16bb'\JJ	.	Ah!	.	.
.	8qbb/	.	.	.	.
8d#X 8c 8A 8F#\	(16aa/LL	.	jak-	.	.
.	16gg#X/)	.	-że	.	.
8d#J 8c 8A 8F#\	16aa'/	.	.	.	.
.	16bb'/JJ	.	.	.	.
*	*v	*v	*	*	*
!!LO:PB:g=original
=16	=16	=16	=16	=16
*ped	*	*	*	*
8C 8CC/	16ccc'\	bę-	.	.
.	(32ggn\LLL	-dzie	.	.
.	32aa\JJJ	.	.	.
4e 4c 4G 4E\	16gg\LL)	.	.	.
.	16ff'\JJ	.	.	.
*Xped	*	*	*	*
.	(16ee\LL	.	.	.
.	16gg\	.	.	.
8eL 8c 8G 8E\	16ccc\)	.	.	.
.	16bb'\JJ	za-	.	.
.	8qbb/	.	.	.
8d#X 8c 8A 8F#X\	16aa\LL	-chwy-	.	.
.	16gg#X\	.	.	.
8d#J 8c 8A 8F#\	16aa\	.	.	.
.	16bb\JJ	-ca-	.	.
=17	=17	=17	=17	=17
*ped	*	*	*	*
8C 8CC/	16ccc\	.	.	.
.	(32ggn\LLL	-ją-	.	.
.	32aa\JJJ	.	.	.
4e 4c 4G\	16gg\LL)	.	.	.
.	16ff'\JJ	.	.	.
.	(16ee\LL	-ca.	.	.
.	16gg\	.	.	.
*Xped	*	*	*	*
8c 8G 8E\	16ccc\)	.	.	.
.	16ddd'\JJ	.	.	.
8F#XL 8FF#X\	(16eee-X\LL	.	.	.
.	16ccc\)	.	.	.
8cJ 8A 8D#X\	16aa'\	.	.	.
.	16ccc'\JJ	.	.	.
=18	=18	=18	=18	=18
*ped	*	*	*	*
8GG'</	16gg\LL	.	.	.
.	32cc\L	.	.	.
.	32dd\JJJ	.	.	.
4c 4G 4E^^\	16een\LL	.	.	.
.	16ff\JJ	.	.	.
*Xped	*	*	*	*
.	16gg\LL	.	.	.
.	16eee\	.	.	.
8eL 8c#X 8G'\	16ccc#X\	.	.	.
.	16aa\JJ	.	.	.
8fn 8d 8A 8G'\	16ff\LL	.	.	.
.	16ddd\	.	.	.
8fJ 8d 8G'\	16bb\	.	.	.
.	16gg\JJ	.	.	.
!!LO:LB:g=original
=19	=19	=19	=19	=19
16ELL 16C'\	32ccc 32ee 32cc\	Wszyscy	p	.
.	32r	.	.	.
16c'\	16e'/LL	i	.	.
16G'\	16cc'/	Hr:	.	.
16c'\JJ	16ee'/JJ	Ce	.	.
16ELL 16C'\	16dd'/LL	n'est	.	.
16c'\	16cc'/	pas	.	.
16G'\	16g'/	mal!	.	.
16c'\JJ	16e'/JJ	.	.	.
16ELL 16C'\	4g^/	ce n'est pas mal!	.	.
16c'\	.	.	.	.
16G'\	.	.	.	.
16c'\JJ	.	.	.	.
=20	=20	=20	=20	=20
*	*^	*	*	*
16A-XLL 16C'\	16r	2cc 2a-X\	.	.	.
16c'\	16f'</LL	.	.	.	.
16F'\	16a-'</	.	Dz:	.	.
16c'\JJ	16cc'</JJ	.	.	.	.
16A-LL 16C'\	16b'</LL	.	Za-	.	.
16c'\	16cc'</	.	-wdzię-	.	.
16F'\	16dd'</	.	-cza	.	.
16c'\JJ	16d'</JJ	.	wdów-	.	.
16FLL 16C'\	4b 4g^/	4ryy	-ka mi ten	.	.
16c'\	.	.	.	.	.
16G'\	.	.	.	.	.
16c'\JJ	.	.	.	.	.
*	*v	*v	*	*	*
=21	=21	=21	=21	=21
16ELL 16C'\	16g'/LL	bal!	.	.
16c'\	16e'/	.	.	.
16G'\	16g'/	.	.	.
16c'\JJ	16ee'/JJ	.	.	.
16ELL 16C'\	16dd'/LL	.	.	.
16c'\	16cc'/	.	.	.
16G'\	16g'/	.	.	.
16c'\JJ	16e'/JJ	.	.	.
16ELL 16C'\	4g^/	.	.	.
16c'\	.	.	.	.
16G'\	.	.	.	.
16c'\JJ	.	.	.	.
!!LO:LB:g=original
=22	=22	=22	=22	=22
*	*^	*	*	*
16A-XLL 16C'\	16r	2cc 2a-X\	.	.	.
16c'\	16f'</LL	.	.	.	.
16F'\	16a-'</	.	.	.	.
16c'\JJ	16cc'</JJ	.	.	.	.
16A-LL 16C'\	16b'</LL	.	.	.	.
16c'\	16cc'</	.	.	.	.
16F'\	16dd'</	.	.	.	.
16c'\JJ	16d'</JJ	.	.	.	.
16FLL 16C'\	4b 4g^/	4ryy	.	.	.
16c'\	.	.	.	.	.
16G'\	.	.	.	.	.
16c'\JJ	.	.	.	.	.
*	*v	*v	*	*	*
=23	=23	=23	=23	=23
16ELL 16C\	16cc\	.	.	.
16c\	16e/LL	.	.	.
16G\	16f/	.	.	.
!	!	!	!LO:HP:b:t=cre-scen-do:ext2=cd	!
16c\JJ	16f#X/JJ	.	<	.
.	8qa/	.	.	.
16ELL 16C\	16g/LL	.	.	.
16c\	16f#/	.	.	.
16G\	16g/	.	.	.
16c\JJ	16a/JJ	.	.	.
16ELL 16C\	16b\LL	.	.	.
16c\	16cc\	.	.	.
16G\	16dd\	.	.	.
16c\JJ	16dd#X\JJ	.	.	.
=24	=24	=24	=24	=24
*	*^	*	*	*
16ELL 16C#X\	(2ee/	16r	.	.	.
16B-X\	.	16g\LL	.	.	.
16G\	.	16a\	.	.	.
16B-\JJ	.	16b-X\JJ	.	.	.
16ELL 16C#\	.	16a\LL	.	.	.
16B-\	.	16g\	.	.	.
16G\	.	16a\	.	.	.
16B-\JJ	.	16b-\JJ	.	.	.
16ELL 16C#\	4a/)	16a\LL	.	.	.
16B-\	.	16g\	.	.	.
16G\	.	16a\	.	.	.
16B-\JJ	.	16b-\JJ	.	[	.
*	*v	*v	*	*	*
!!LO:LB:g=original
=25	=25	=25	=25	=25
16FLL 16D\	16b-X\	.	<	.
16d\	16f/LL	.	.	.
16B-X\	16g/	.	.	.
16d\JJ	16a/JJ	.	.	.
.	8qcc/	.	.	.
16FLL 16D\	16b-\LL	.	.	.
16d\	16a\	.	.	.
16B-\	16b-\	.	.	.
16d\JJ	16cc\JJ	.	.	.
16FLL 16D\	16dd\LL	.	.	.
16d\	16ee-X\	.	.	.
16B-\	16een\	.	.	.
16d\JJ	16ffn\JJ	.	[[	.
=26	=26	=26	=26	=26
*	*^	*	*	*
16F#X 16FF#X/	(2aa 2a/	16r	.	sf >	.
16e-X\LL	.	16cc\LL	.	.	.
16c\	.	16dd\	.	.	.
16e-\JJ	.	16ee-X\JJ	.	.	.
16F#\LL	.	16dd\LL	.	.	.
16e-\	.	16cc\	.	.	.
16c\	.	16dd\	.	.	.
16e-\JJ	.	16ee-\JJ	.	.	.
16F#\LL	4aa-X) 4a-X/	16dd\LL	.	.	.
16e-\	.	16cc\	.	.	.
16c\	.	16b\	.	.	.
16e-\JJ	.	16cc\JJ	.	]	.
=27	=27	=27	=27	=27	=27
16G 16GG/	16r	2gg 2g^\	.	.	.
!	!	!	!	!LO:DY:a	!
16enX'\LL	(<32gg/LLL	.	.	pp	.
.	32aa/JJJ	.	.	.	.
16c'\	16gg/LL)	.	.	.	.
16e'\JJ	16ff'</JJ	.	.	.	.
16G'\LL	16een/LL	.	.	.	.
16e'\	16gg/	.	.	.	.
16c'\	16ccc/	.	.	.	.
16e'\JJ	16bb/JJ	.	.	.	.
.	8qbb/	.	.	.	.
16ALL 16G'\	16aa/LL	8.ff#X\L	.	.	.
16e'\	16gg#X/	.	.	.	.
16c'\	16aa/	.	.	.	.
16e'\JJ	16bb/JJ	16dd\Jk	.	.	.
!!LO:LB:g=original
=28	=28	=28	=28	=28	=28
16G 16GG/	16r	2ggn 2ee 2cc 2g^\	.	.	.
16e'\LL	(<32gg/LLL	.	.	<	.
.	32aa/JJJ	.	.	.	.
16c'\	16gg/LL)	.	.	.	.
16e'\JJ	16ff'</JJ	.	.	.	.
16G'\LL	16ee/LL	.	.	.	.
16e'\	16gg/	.	.	.	.
16c'\	16aa/	.	.	.	.
16e'\JJ	16bb/JJ	.	.	.	.
.	8qbb/	.	.	.	.
16ALL 16G'\	16aa/LL	8.ff#X\L	.	.	.
16d'\	16gg#X/	.	.	.	.
16c'\	16aa/	.	.	.	.
16d'\JJ	16bb/JJ	16dd\Jk	.	.	.
=29	=29	=29	=29	=29	=29
16G 16GG/	16r	4.ggn 4.ee 4.cc 4.g\	.	[ f	.
16e'\LL	(32gg/LLL	.	.	.	.
.	32aa/JJJ	.	.	.	.
16c'\	16gg/LL)	.	.	.	.
16g'\JJ	16ffn'/JJ	.	.	.	.
16G'\LL	(16ee/LL	.	.	.	.
16e'\	16gg/)	.	.	.	.
16c'\	16ccc'>/	16ryy	.	.	.
*	*	*	*	*	*below
16g'\JJ	16eee'>/JJ	32dd#X\LLL	.	.	1
.	.	32ee\JJJ	.	.	1
16G'\LL	16ccc#X'/LL	8.gg\L	.	.	.
16e'\	(16ee/	.	.	.	.
16c#X'\	16aa/JJ)	.	.	.	.
16A'\JJ	16r	16ff#X\Jk	.	.	.
=30	=30	=30	=30	=30	=30
16G 16GG/	16r	4.dd 4.a\	.	.	.
16f#X'\LL	(<32dd/LLL	.	.	.	.
.	32ee/JJJ	.	.	.	.
16d'\	16dd/LL)	.	.	.	.
16f#'\JJ	16cc'/JJ	.	.	.	.
16ALL 16G'\	16a'/LL	.	.	.	.
16fn'\	16cc'/	.	.	.	.
16d'\	16dd'>/	16ryy	.	.	.
16c'\JJ	16aa'/JJ	(32ee\LLL	.	.	.
.	.	32ff\JJJ)	.	.	.
16BLL 16G'\	16r	8.ee^\L	.	.	.
16d'\	(16g/LL	.	.	.	.
16B 16G'\	16gg/JJ)	.	.	.	.
16f'\JJ	16r	16dd\Jk	.	.	.
*	*v	*v	*	*	*
!!LO:PB:g=original
=31	=31	=31	=31	=31
16AA\LL	16cc\	.	.	.
16c\	16e'/LL	.	.	.
16E\	16a'/	.	.	.
16A\JJ	16cc'/JJ	.	.	.
16C\LL	16b'\LL	.	.	.
16A\	16a'\	.	.	.
16E\	16cc'\	.	.	.
16A\JJ	16dd'\JJ	.	.	.
16AA\LL	4ee 4e^/	.	.	.
16c\	.	.	.	.
16E\	.	.	.	.
16A\JJ	.	.	.	.
=32	=32	=32	=32	=32
16GG#X\LL	16ddLL 16f'\	.	.	.
16B\	16ff'\	.	.	.
16F\	16dd'\	.	.	.
16B\JJ	16cc'\JJ	.	.	.
16D\LL	16b'\LL	.	.	.
16B\	16dd'\	.	.	.
16F\	16b'\	.	.	.
16B\JJ	16g#X'\JJ	.	.	.
16GG#\LL	4e^/	.	.	.
16B\	.	.	.	.
16E\	.	.	.	.
16B\JJ	.	.	.	.
=33	=33	=33	=33	=33
16AA\LL	16ee'/LL	.	.	.
16c\	16e'/	.	.	.
16E\	16a'/	.	.	.
16A\JJ	16cc'/JJ	.	.	.
16C\LL	16b'\LL	.	.	.
16A\	16a'\	.	.	.
16E\	16cc'\	.	.	.
16A\JJ	16dd'\JJ	.	.	.
16AA\LL	4ee 4e^/	.	.	.
16c\	.	.	.	.
16E\	.	.	.	.
16A\JJ	.	.	.	.
!!LO:LB:g=original
=34	=34	=34	=34	=34
16GG#X\LL	16ddLL 16f'\	.	.	.
16B\	16ff'\	.	.	.
16F\	16dd'\	.	.	.
16B\JJ	16cc'\JJ	.	.	.
16D\LL	16b'\LL	.	.	.
16B\	16dd'\	.	.	.
16F\	16b'\	.	.	.
16B\JJ	16g#X'\JJ	.	.	.
16GG#\LL	4e^/	.	.	.
16B\	.	.	.	.
16E\	.	.	.	.
16B\JJ	.	.	.	.
=35	=35	=35	=35	=35
16AA\LL	16eeLL 16cc/	.	<	.
16c\	16e/	.	.	.
16E\	16f#X/	.	.	.
16A\JJ	16g#X/JJ	.	.	.
.	8qb/	.	.	.
16C\LL	16a/LL	.	.	.
16A\	16g#/	.	.	.
16E\	16a/	.	.	.
16A\JJ	16b/JJ	.	.	.
16AA\LL	16cc\LL	.	.	.
16c\	16b\	.	.	.
16E\	16cc\	.	.	.
16A\JJ	16dd\JJ	.	[[	.
=36	=36	=36	=36	=36
*	*^	*	*	*
!	!	!	!	!LO:DY:a	!
16C\LL	(2ee-X/	16aLL 16e-X\	.	sf	.
16A\	.	16f#X\	.	.	.
16F#X\	.	16a\	.	.	.
16A\JJ	.	16g\JJ	.	.	.
16C\LL	.	16f#\LL	.	.	.
16A\	.	16g\	.	.	.
16F#\	.	16a\	.	.	.
16A\JJ	.	16b\JJ	.	.	.
16C\LL	4f#/)	16cc\LL	.	.	.
16A\	.	16dd\	.	.	.
16F#\	.	16een\	.	.	.
16A\JJ	.	16ff#X\JJ	.	.	.
*	*v	*v	*	*	*
!!LO:LB:g=original
=37	=37	=37	=37	=37
16BB\LL	16gg 16dd 16g\	.	<	.
16G\	16g/LL	.	.	.
16D\	16b/	.	.	.
16G\JJ	16a/JJ	.	.	.
16BB\LL	16g/LL	.	.	.
16G\	16a/	.	.	.
16D\	16b/	.	.	.
16G\JJ	16cc/JJ	.	.	.
.	8qee/	.	.	.
16BB\LL	16dd\LL	.	.	.
16G\	16cc#X\	.	.	.
16D\	16dd\	.	.	.
16G\JJ	16ee\JJ	.	[[	.
=38	=38	=38	=38	=38
*	*^	*	*	*
!	!	!	!	!LO:DY:a	!
16D\LL	(2ff/	16bLL 16f\	.	sf >	.
16B\	.	16g#X\	.	.	.
16F\	.	16b\	.	.	.
16B\JJ	.	16a\JJ	.	.	.
16D\LL	.	16g#\LL	.	.	.
16B\	.	16a\	.	.	.
16F\	.	16b\	.	.	.
16B\JJ	.	16ccn\JJ	.	.	.
16D\LL	4g#/)	16dd\LL	.	.	.
16B\	.	16ee\	.	.	.
16F\	.	16ff\	.	.	.
16B\JJ	.	16ee\JJ	.	]	.
=39	=39	=39	=39	=39	=39
16C#X\LL	16r	2ee 2a\	.	p	.
16A\	(<32ee/LLL	.	.	.	.
.	32ff#X/JJJ	.	.	.	.
16E\	16ee/LL)	.	.	.	.
16A\JJ	16dd'</JJ	.	.	.	.
16AA\LL	(<16cc#X/LL	.	.	.	.
16A\	16ee/)	.	.	.	.
16E\	16aa'</	.	.	.	.
16A\JJ	16ee'</JJ	.	.	.	.
16BB#X\LL	8.dd#X/L	4a\	.	.	.
16A\	.	.	.	.	.
16D#X\	.	.	.	.	.
16A\JJ	16ff#/Jk	.	.	.	.
!!LO:LB:g=original
=40	=40	=40	=40	=40	=40
16C#X\LL	16r	2ee 2a^\	.	.	.
16A\	(<32ee/LLL	.	.	.	.
.	32ff#X/JJJ	.	.	.	.
16E\	16ee/LL)	.	.	.	.
16A\JJ	16dd'</JJ	.	.	.	.
16C#\LL	16cc#X/LL	.	.	.	.
16A\	16ee/	.	.	.	.
16E\	16aa/	.	.	.	.
16A\JJ	16ggn/JJ	.	.	.	.
16Cn\LL	8.ff#XL 8.dd#X 8.a 8.f#X/	4ryy	.	.	.
16A\	.	.	.	.	.
16BB\	.	.	.	.	.
16AA\JJ	16ff#Jk 16dd# 16cc# 16f#/	.	.	.	.
=41	=41	=41	=41	=41	=41
16GG/	4.gg/	2cc 2g\	.	f	.
16c\LL	.	.	.	.	.
16G 16E\	.	.	.	.	.
16c\JJ	.	.	.	.	.
16GG\LL	.	.	.	.	.
16c\	.	.	.	.	.
16G 16E\	16ee/LL	.	.	.	.
16c\JJ	16cc/JJ	.	.	.	.
16GG\LL	8.gg/L	4b-X 4g\	.	.	.
16c#X\	.	.	.	.	.
16G 16E\	.	.	.	.	.
16c#\JJ	16ff#X/Jk	.	.	.	.
=42	=42	=42	=42	=42	=42
*	*	*^	*	*	*
16GG\LL	4.dd/	2cc\	4f#X\	.	.	.
16d\	.	.	.	.	.	.
16A 16F#X\	.	.	.	.	.	.
16d\JJ	.	.	.	.	.	.
16GG\LL	.	.	4fn\	.	.	.
16c\	.	.	.	.	.	.
16A 16Fn\	16ee/LL	.	.	.	.	.
16c\JJ	16ff/JJ	.	.	.	.	.
16GG\LL	8.ee/L	4bn 4f\	4ryy	.	.	.
16B\	.	.	.	.	.	.
16G 16F\	.	.	.	.	.	.
16B\JJ	16dd/Jk	.	.	.	.	.
*	*v	*v	*v	*	*	*
!!LO:LB:g=original
=43	=43	=43	=43	=43
8c 8C\	8cc 8g 8e/	.	.	.
16r	16r	.	.	.
*ped	*	*	*	*
16F 16C 16FF/	16cc 16a 16f/	.	ff	.
([2f [2c [2A\	(([2ff [<2cc [2a\	.	.	.
=44	=44	=44	=44	=44
*Xped	*	*	*	*
8f]L 8c] 8A\]	8ff]L 8cc] 8a/]	.	>	.
8B-X 8E 8C#X\	8ee 8b-X 8g/	.	.	.
8A 8F 8D\	8dd 8a 8f/	.	.	.
8cn 8A 8E\	8cc 8a 8e/	.	.	.
8A 8F\	8bn 8f 8d/	.	.	.
8BnJ 8F\)	8aJ 8d#X/))	.	]]	.
=45	=45	=45	=45	=45
*^	*^	*	*	*
*ped	*	*	*	*	*	*
!LO:N:vis=2	!	!LO:TX:i:b:t=dolce	!	!	!	!
!LO:TX:t=P:problem:błędne wyświetlanie belki	!	!	!	!	!	!
(16E/LL	2E\	(2ee/	8g#X\L	.	p	.
16B/JJ)	.	.	.	.	.	.
8ryy	.	.	(>16e\L	.	.	.
.	.	.	16g#\JJ	.	.	.
4ryy	.	.	16b\LL	.	.	.
.	.	.	16ee\	.	.	.
.	.	.	16dd#X\	.	.	.
*Xped	*	*	*	*	*	*
.	.	.	16cc#X\JJ)	.	.	.
8.B/L	4F#X 4E\	8.dd#X/L	16b\LL	.	.	.
.	.	.	16ff#X\	.	.	.
.	.	.	16f#X\	.	.	.
16B/Jk	.	16b/Jk)	16a\JJ	.	.	.
!!LO:PB:g=original
=46	=46	=46	=46	=46	=46	=46
*ped	*	*	*	*	*	*
2B\ 2E\	2ryy	2ee/	(16g#X\LL	.	.	.
.	.	.	16e\	.	.	.
.	.	.	16g#\	.	.	.
.	.	.	16b\JJ	.	.	.
*Xped	*	*	*	*	*	*
.	.	.	16ee\LL	.	>	.
.	.	.	16gg#X\	.	.	.
.	.	.	16ff#X\	.	.	.
.	.	.	16ee\JJ)	.	.	.
!	!	!LO:TX:t=P:problem:w źródle są dwie triole zamiast sekstoli	!	!	!	!
8BL 8F#X/	4E\	(24ff#LL 24dd#X\	4ryy	.	.	.
.	.	24gg#\	.	.	.	.
.	.	24aa\J	.	.	.	.
8B/J	.	24bb\L	.	.	.	.
.	.	24ccc#X\	.	.	.	.
.	.	24ddd#X\JJ)	.	.	]	.
*	*	*v	*v	*	*	*
=47	=47	=47	=47	=47	=47
16G#X/LL	4E\	2eee 2ee\	.	pp	.
16e/	.	.	.	.	.
16B/	.	.	.	.	.
16e/JJ	.	.	.	.	.
16G#/LL	4E\	.	.	.	.
16e/	.	.	.	.	.
16B/	.	.	.	.	.
16e/JJ	.	.	.	.	.
16AA\LL	4ryy	8.gggnL 8.ggn\	.	.	.
16c#X\	.	.	.	.	.
16A\	.	.	.	.	.
16c#\JJ	.	16fff#XJk 16ff#X\	.	.	.
*v	*v	*	*	*	*
=48	=48	=48	=48	=48
*	*^	*	*	*
16F#XLL 16D\	(16ddd/LL	4.dd\	.	.	.
16cn\	16ccc/	.	.	.	.
16A\	16aa/	.	.	.	.
16c\JJ	16bb/JJ	.	.	.	.
16FnLL 16D\	16ccc/LL	.	.	.	.
16c\	16ddd/	.	.	.	.
16A-X\	16eee/	16ee\LL	.	.	.
16c\JJ	16fffn/JJ	16ffn\JJ	.	.	.
16GG\LL	8.eeeL 8.gg 8.ee\	4ryy	.	.	.
16B\	.	.	.	.	.
16G\	.	.	.	.	.
16B\JJ	16dddJk 16ff 16dd\)	.	.	.	.
*	*v	*v	*	*	*
!!LO:LB:g=original
=49	=49	=49	=49	=49
16C\LL	16ccc 16ee 16cc\	.	.	.
16c\	(32ccc\LLL	.	.	.
.	32ddd\JJJ	.	.	.
16G 16E\	16ccc\LL)	.	.	.
16c\JJ	16bb'\JJ	.	.	.
16ELL 16C\	16ccc\LL	.	.	.
16c\	16gg\JJ	.	.	.
16G 16E\	(<8g/	.	.	.
16c\JJ	.	.	.	.
16ELL 16C\	8.ee\L	.	.	.
16c\	.	.	.	.
16G 16E\	.	.	.	.
16c\JJ	16g\Jk	.	.	.
=50	=50	=50	=50	=50
16ELL 16C\	16cc 16e'/)	.	.	.
16c\	(32gg\LLL	.	.	.
.	32aa\JJJ	.	.	.
16G 16E\	16gg\LL)	.	.	.
16c\JJ	16ff#X\JJ	.	.	.
16ELL 16C\	16gg\LL	.	.	.
16c\	16ee\JJ	.	.	.
16G 16E\	(<8g/	.	.	.
16c\JJ	.	.	.	.
16ELL 16C\	8.ee\L	.	.	.
16c\	.	.	.	.
16G 16E\	.	.	.	.
16c\JJ	16g\Jk	.	.	.
=51	=51	=51	=51	=51
8C'\L	8ccL 8e/)	.	.	.
8AJ 8C'\	8dd#XJ 8cc 8f#X'/	.	.	.
8GL 8C'\	8eeL 8cc 8g'\	.	.	.
8AJ 8C'\	8dd#J 8cc 8f#'\	.	.	.
8GL 8C'\	8eeL 8cc 8g'\	.	.	.
8AJ 8C'\	8dd#J 8cc 8f#'\	.	.	.
!!LO:LB:g=original
=52	=52	=52	=52	=52
8GL 8C'\	8eeL 8cc 8g'/	.	.	.
8A-XJ 8C'\	8bJ 8fn 8dn'/	.	.	.
8GL 8C'\	8ccL 8e 8c'/	.	.	.
8A-J 8C'\	8bJ 8f 8d'/	.	.	.
8GL 8C'\	8ccL 8e 8c'/	.	.	.
8A-J 8C'\	8bJ 8f 8d'/	.	.	.
=53	=53	=53	=53	=53
8GL 8C'\	8ccL 8e 8c'/	.	.	.
8AnJ 8C'\	8f#XJ 8d 8c#X'/	.	.	.
8GL 8C'\	8gL 8e 8c#'/	.	.	.
8AJ 8C'\	8f#J 8d 8c#'/	.	.	.
8GL 8C'\	8gL 8e 8c#'/	.	.	.
8AJ 8C'\	8f#J 8d 8c#'/	.	.	.
=54	=54	=54	=54	=54
!	!LO:TX:i:a:t=un poco riten.	!	!	!
8G 8C\	8g 8e 8c/	.	.	.
8A^^\L	8a'^/L	.	.	.
8G^^\	8g'^/	.	.	.
8F^^\	8fn'^/	.	.	.
8E^^\	8e'^/	.	.	.
8D^^\J	8d'^/J	.	.	.
!!LO:LB:g=original
=55||	=55||	=55||	=55||	=55||
*M6/8	*M6/8	*	*	*
!!LO:TX:B:a:t=Allegro tranquillo.
4C 4CC\	4c 4G< 4E</	.	p	.
8C 8CC\	8c 8G< 8E</	.	.	.
4C 4FF\	4c 4A< 4F</	.	.	.
8C 8FF\	8c 8A< 8F</	.	.	.
=56	=56	=56	=56	=56
4C 4CC\	4c 4G< 4E</	.	.	.
8C 8CC\	8c 8G< 8E</	.	.	.
4C 4FF\	4c 4A< 4F</	.	.	.
8C 8FF\	8c 8A< 8F</	.	.	.
=57	=57	=57	=57	=57
4C 4CC\	4c 4G< 4E</	.	.	.
8C 8CC\	8c 8G< 8E</	.	.	.
4C 4FF\	4c 4A< 4F</	.	.	.
8C 8FF\	8c 8A< 8F</	.	.	.
=58	=58	=58	=58	=58
4C 4CC\	4c 4G< 4E</	.	.	.
8c 8G 8E 8C\	8r	.	.	.
4c 4A 4F\	8a/L	Hr: Idź-	.	.
.	8a'/	-my	.	.
8c 8A 8F\	8cc'/J	do	.	.
=59	=59	=59	=59	=59
4c 4G 4E\	4.g^/	sal,	.	.
8c 8G 8E\	.	.	.	.
4c 4G 4C\	8eeL 8g\	idź-	.	.
.	8ee 8g'\	-my	.	.
8e 8c\	8ggJ 8g'\	do	.	.
!!LO:LB:g=original
=60	=60	=60	=60	=60
4d 4B\	4.dd 4.g^\	sal,	.	.
8d 8B\	.	.	.	.
4d 4B 4G\	8dd\L	Trze-	.	.
.	8dd'\	-ba	.	.
8d 8B 8G\	8ee'\J	roz-	.	.
=61	=61	=61	=61	=61
*	*^	*	*	*
4d 4A 4D\	8.ff^/L	4f\	-po-	.	.
.	16ee/K	.	.	.	.
8d 8A 8D\	8dd/J	8f\	-cząć	.	.
4B 4G\	(8dd/L	4f\	pró-	.	.
.	8g/)	.	-bę	.	.
8B 8G\	8dd/J	8f\	za-	.	.
=62	=62	=62	=62	=62	=62
4c 4G 4C\	(4ee/	4.e\	-ba-	.	.
8c\	8cc/)	.	-wy	.	.
4c 4F\	8a'/L	4.ryy	a	.	.
.	8a'/	.	po-	.	.
8c 8F\	8cc'/J	.	-tem	.	.
*	*v	*v	*	*	*
=63	=63	=63	=63	=63
4c 4G 4E\	4.g^/	bal	.	.
8c 8G 8E\	.	.	.	.
4c 4G 4C\	8eeL 8g'\	a	.	.
.	8ee 8g'\	ta-	.	.
8c 8G 8C\	8ggJ 8ee 8g'\	-ki	.	.
=64	=64	=64	=64	=64
4B 4G 4BB\	4.dd 4.g^/	bal,	.	.
8B 8G 8BB\	.	.	.	.
(4B-X 4BB-X\	8ddL 8g 8d'/	bę-	.	.
.	8dd 8d'/	-dzie	.	.
8A 8AA\)	8eeJ 8cc#X 8e'/	e-	.	.
!!LO:PB:g=original
=65	=65	=65	=65	=65
*	*^	*	*	*
4d 4A 4D\	8.ff/L	4f\	-po-	.	.
.	16ee/K	.	.	.	.
8c 8A 8D\	8dd/J	8f\	-ką	.	.
4B 4G\	8dd/L	4f\	w dzie-	.	.
.	8g/	.	-jach	.	.
8G 8GG/	8dd/J	8f\	Warszawy.	.	.
*	*v	*v	*	*	*
=66	=66	=66	=66	=66
8c 8G 8C\	4.cc 4.e/	.	pp	.
8r	.	.	.	.
8c 8G 8E 8C\	.	.	.	.
8c 8G 8E 8C\	8r	.	.	.
!	!LO:TX:i:b:t=scherz.	!	!	!
8r	(16gg\LL	.	.	.
.	16ee\	.	.	.
8A 8D 8C\	16ff#X\	.	.	.
.	16dd\JJ)	.	.	.
=67	=67	=67	=67	=67
8c 8G 8C\	(8ee\L	.	.	.
8r	8g\	.	.	.
8c 8G 8E 8C\	[8cc\J)	.	.	.
8c 8G 8E 8C\	8cc\]	.	.	.
8r	(16gg\LL	.	.	.
.	16ee\	.	.	.
8A 8D 8C\	16ff#X\	.	.	.
.	16dd\JJ)	.	.	.
=68	=68	=68	=68	=68
8c 8G 8C\	(8ee\L	.	.	.
8r	8g\	.	.	.
8c 8G 8E 8C\	[8cc\J)	.	.	.
8c 8G 8E 8C\	8cc\]	.	.	.
8r	(16gg\LL	.	.	.
.	16ee\	.	.	.
8A 8D 8C\	16ff#X\	.	.	.
.	16dd\JJ)	.	.	.
!!LO:LB:g=original
=69	=69	=69	=69	=69
8c 8G 8C\	(8ee\L	.	.	.
8r	8g\)	.	.	.
8G 8C\	8eeJ 8g'\	.	.	.
8A 8G 8C\	(8ddL 8f#X/	.	.	.
8r	8g/)	.	.	.
8B 8G 8C\	8ddJ 8fn/	.	.	.
=70	=70	=70	=70	=70
8c 8G 8C\	4.cc 4.e/	.	.	.
8r	.	.	.	.
8c 8G 8E 8C\	.	.	.	.
8c 8G 8E 8C\	8r	.	.	.
8r	(16gg\LL	.	.	.
.	16ee\	.	.	.
8A 8D 8C\	16ff#X\	.	.	.
.	16dd\JJ)	.	.	.
=71	=71	=71	=71	=71
8c 8G 8C\	(8ee\L	.	.	.
8r	8g\	.	.	.
8c 8G 8E 8C\	[8cc\J)	.	.	.
8c 8G 8E 8C\	8cc\]	.	.	.
8r	(16gg\LL	.	.	.
.	16ee\	.	.	.
8A 8D 8C\	16ff#X\	.	.	.
.	16dd\JJ)	.	.	.
=72	=72	=72	=72	=72
8c 8G 8C\	(8ee\L	.	.	.
8r	8g\	.	.	.
8c 8G 8E 8C\	[8cc\J)	.	.	.
8c 8G 8E 8C\	8cc\]	.	.	.
8r	(16gg\LL	.	.	.
.	16ee\	.	.	.
8A 8D 8C\	16ff#X\	.	.	.
.	16dd\JJ)	.	.	.
!!LO:LB:g=original
=73	=73	=73	=73	=73
8G 8E 8C\	8ee\L	.	mf	.
8r	8ccc 8ee 8cc\	.	.	.
8A 8AA\	8bbJ 8dd 8b\	.	.	.
8D 8DD/	8aaL 8cc 8a\	.	.	.
8r	8gg 8b 8g\	.	.	.
8D 8DD/	8ff#XJ 8a 8f#X\	.	.	.
=74	=74	=74	=74	=74
4G 4GG/	4gg 4b 4g\	.	.	.
8B 8G\	8r	.	.	.
4c 4A 4F\	8r	.	.	.
.	8a'/L	Dz: A-	.	.
8c 8A 8F\	8cc'/J	-leż	.	.
=75	=75	=75	=75	=75
4c 4G 4E\	4g/	wuj-	.	.
8c 8G 8E\	8g/	-ciu,	.	.
4c 4G 4C\	8r	.	.	.
.	8eeL 8g'\	nie	.	.
8e 8c\	8ggJ 8g'\	wy-	.	.
=76	=76	=76	=76	=76
4d 4B\	4dd 4g\	-pa-	.	.
8d 8B\	8dd 8g\	-da,	.	.
4d 4B 4G\	4dd\	kie-	.	.
8d 8B 8G\	8ee'\	-dy	.	.
=77	=77	=77	=77	=77
*	*^	*	*	*
4d 4A 4D\	8.ff/L	4f\	w ser-	.	.
.	16ee/K	.	.	.	.
8d 8A 8D\	8dd/J	8f\	-cu	.	.
4B 4G\	(8dd/L	4f\	tli	.	.
.	8g/)	.	.	.	.
8B 8G\	8dd'/J	8f\	u-	.	.
!!LO:LB:g=original
=78	=78	=78	=78	=78	=78
4c 4G 4C\	(4ee/	4.e\	-czu-	.	.
8c\	8cc/)	.	-cie	.	.
4c 4F\	8r	8ryy	.	.	.
.	8a'/L	4ryy	przyjść	.	.
8c 8F\	8cc'/J	.	.	.	.
*	*v	*v	*	*	*
=79	=79	=79	=79	=79
4c 4G 4E\	4g^/	w try-	.	.
8c 8G 8E\	8g/	-kotach	.	.
4c 4G 4C\	8r	.	.	.
.	8eeL 8g'\	i	.	.
8c 8G 8C\	8ggJ 8ee 8g'\	w sur-	.	.
=80	=80	=80	=80	=80
4c 4G 4C\	4dd 4g^/	-du-	.	.
8B 8G 8BB\	8g/	-cie.	.	.
[4B-X 4BB-X\	8r	.	.	.
.	8ddL 8d'/	.	.	.
8B-] 8BB-\	8eeJ 8cc 8e'/	.	.	.
=81	=81	=81	=81	=81
4A 4AA\	8.ffL 8.f\	.	.	.
.	16cc\K	.	.	.
8A-X 8AA-X\	8ffJ 8f\	.	.	.
4G 4GG/	8ee\L	.	.	.
.	8g\	.	.	.
!	!LO:TUP:a:problem:klamra łukowa	!	!	!
8f 8B 8G\	24dd\L	.	.	.
.	24ee\	.	.	.
.	24dd\JJ	.	.	.
=82	=82	=82	=82	=82
*	*^	*	*	*
8c 8G 8C\	4.cc/	8e\	.	pp	.
8r	.	8r	.	.	.
8c 8G 8C\	.	8e\	.	.	.
8B 8G 8C\	8r	8f\	.	.	.
8r	(16dd/LL	8r	.	.	.
.	16a/	.	.	.	.
8d 8G 8C\	16b/	8f\	.	.	.
.	16g/JJ)	.	.	.	.
!!LO:LB:g=original
=83	=83	=83	=83	=83	=83
8c 8G 8C\	4.cc/	8e\	.	.	.
8r	.	8r	.	.	.
8c 8G 8C\	.	8e\	.	.	.
8B 8G 8C\	8r	8f\	.	.	.
8r	(16dd/LL	8r	.	.	.
.	16a/	.	.	.	.
8d 8G 8C\	16b/	8f\	.	.	.
.	16g/JJ)	.	.	.	.
=84	=84	=84	=84	=84	=84
8c 8G 8C\	4.cc/	8e\	.	.	.
8r	.	8r	.	.	.
8c 8G 8C\	.	8e\	.	.	.
8B 8G 8C\	8r	8f\	.	.	.
8r	(16dd/LL	8r	.	.	.
.	16a/	.	.	.	.
8d 8G 8C\	16b/	8f\	.	.	.
.	16g/JJ)	.	.	.	.
=85	=85	=85	=85	=85	=85
8c 8G 8C\	(8cc/L	4.e\	.	.	.
8r	8b/	.	.	.	.
8c 8G 8C\	8cc/J)	.	.	.	.
4c 4A-X 4C\	8ddL 8f 8d/	8ryy	.	.	.
.	8ee 8e/	4ryy	.	.	.
8c 8A- 8C\	8ffJ 8f/	.	.	.	.
=86	=86	=86	=86	=86	=86
8c 8G 8C\	4.gg\ 4.ee\ 4.cc\ 4.g\	4.ryy	.	.	.
8r	.	.	.	.	.
8c 8G 8C\	.	.	.	.	.
8B 8G 8C\	8r	8f\	.	.	.
8r	(16dd/LL	8r	.	.	.
.	16a/	.	.	.	.
8d 8G 8C\	16b/	8f\	.	.	.
.	16g/JJ)	.	.	.	.
=87	=87	=87	=87	=87	=87
8c 8G 8C\	4.cc/	8e\	.	.	.
8r	.	8r	.	.	.
8c 8G 8C\	.	8e\	.	.	.
8B 8G 8C\	8r	8f\	.	.	.
8r	(16dd/LL	8r	.	.	.
.	16a/	.	.	.	.
8d 8G 8C\	16b/	8f\	.	.	.
.	16g/JJ)	.	.	.	.
!!LO:PB:g=original
=88	=88	=88	=88	=88	=88
8c 8G 8C\	4.cc/	8e\	.	.	.
8r	.	8r	.	.	.
8c 8G 8C\	.	8e\	.	.	.
8B 8G 8C\	8r	8f\	.	.	.
8r	8ee/L	8r	.	.	.
8d 8G 8C\	8dd/J	8f\	.	.	.
*	*v	*v	*	*	*
=89	=89	=89	=89	=89
8c 8C\	8cc 8e/	.	.	.
8r	8eeL 8cc'\	.	.	.
8AA/	8ddJ 8b'\	.	.	.
8D\	8ccL 8a'/	.	.	.
8r	8b 8g'/	.	.	.
8D 8DD/	8aJ 8f#X'/	.	.	.
=90	=90	=90	=90	=90
8GG/	8g/	.	.	.
8r	8r	.	.	.
8r	8r	.	.	.
8FL 8C 8FF/	8aaL 8ffn 8cc'\	.	ff	.
8F 8C 8FF/	8aa 8ff 8cc'\	.	.	.
8FJ 8C 8FF/	8cccJ 8ff 8cc'\	.	.	.
=91	=91	=91	=91	=91
4.E 4.C 4.EE^^/	4.gg 4.cc^^\	.	.	.
8CL 8GG 8CC/	8eeeL 8ccc 8gg'\	.	.	.
8C 8GG 8CC/	8eee 8ccc 8gg'\	.	.	.
8CJ 8GG 8CC/	8gggJ 8gg'\	.	.	.
=92	=92	=92	=92	=92
4BB 4GG 4BBB/	4.ddd 4.gg 4.dd^^\	.	.	.
8G 8D 8BB\	.	.	.	.
4G 4D 4BB-X\	8dddL 8gg 8dd\	.	.	.
.	8ddd 8gg 8dd\	.	.	.
8A 8E 8AA\	8eeeJ 8ccc#X 8gg 8ee\	.	.	.
!!LO:LB:g=original
=93	=93	=93	=93	=93
4A 4F 4D\	8.fffL 8.aa 8.ff^\	.	.	.
.	16eeeK 16ee\	.	.	.
8A 8F 8D\	8dddJ 8dd\	.	.	.
4G 4F 4BBn 4GG/	(8dddL 8dd\	.	.	.
.	8gg\)	.	.	.
8G 8F 8BB 8GG/	8dddJ 8dd\	.	.	.
=94	=94	=94	=94	=94
4G 4E 4C\	(4eee 4ee\	.	.	.
8E 8C/	8ccc\)	.	.	.
8FL 8C 8FF'/	8aaL 8ff 8cc'\	.	.	.
8F 8C 8FF'/	8aa 8ff 8cc'\	.	.	.
8FJ 8C 8FF'/	8cccJ 8cc'\	.	.	.
=95	=95	=95	=95	=95
4.E 4.C 4.EE/	4.gg 4.cc^^\	.	.	.
8CL 8GG 8CC/	8eeeL 8ccc 8gg'\	.	.	.
8C 8GG 8CC/	8eee 8ccc 8gg'\	.	.	.
8CJ 8GG 8CC/	8gggJ 8gg'\	.	.	.
=96	=96	=96	=96	=96
4BB 4GG 4BBB/	4.ddd 4.gg 4.dd^^\	.	.	.
8G 8D 8BB\	.	.	.	.
4G 4D 4BB-X\	8dddL 8gg 8dd\	.	.	.
.	8ddd 8gg 8dd\	.	.	.
8A 8E 8AA\	8eeeJ 8ccc#X 8gg 8ee\	.	.	.
=97	=97	=97	=97	=97
4A 4F 4D\	8gggL 8gg\	.	.	.
.	8fff 8ff\	.	.	.
8A 8F 8D\	8eeeJ 8ee\	.	.	.
!	!LO:TX:t=P:problem:błędne wyświetlanie łuku	!	!	!
4F 4BBn 4GG/	8dddL (8dd\	.	.	.
.	8gg\)	.	.	.
8F 8BB 8GG/	8dddJ 8dd\	.	.	.
!!LO:LB:g=original
=98	=98	=98	=98	=98
*	*^	*	*	*
4G 4E 4C\	4ccc\ 4cc\	4.ryy	.	.	.
8c 8G 8C\	8e/	.	.	.	.
4B 4G 4C\	8r	8f\	.	p	.
.	(16dd/LL	8r	.	.	.
.	16a/	.	.	.	.
!	!	!	!	!LO:HP:b:t=di-mi-nu-en-do:ext2=cd	!
8B 8G 8C\	16b/	8f\	.	>	.
.	16g/JJ)	.	.	.	.
=99	=99	=99	=99	=99	=99
4c 4G 4C\	4.cc/	8e\	.	.	.
.	.	8r	.	.	.
8c 8G 8C\	.	8e\	.	.	.
4A 4D 4C\	8r	8c\	.	.	.
.	(16a/LL	8r	.	.	.
.	16e/	.	.	.	.
8A 8D 8C\	16f#X/	8c\	.	.	.
.	16d/JJ)	.	.	.	.
*	*v	*v	*	*	*
=100	=100	=100	=100	=100
4G 4E 4C\	4.g 4.e/	.	.	.
8G 8C\	.	.	.	.
4A-X 4C 4FF/	8r	.	.	.
.	(>16f/LL	.	.	.
.	16c/	.	.	.
8A- 8C\	16d/	.	.	.
.	16c/JJ)	.	.	.
=101	=101	=101	=101	=101
4G 4C 4GG\	4.e 4.c/	.	]]	.
8G 8C 8GG\	.	.	.	.
4F 4GG\	8r	.	.	.
.	(>16d/LL	.	.	.
.	16A</	.	.	.
8F 8D 8GG\	16B</	.	.	.
.	16G</JJ)	.	.	.
=102	=102	=102	=102	=102
*	*^	*	*	*
8E 8C\	8rB<	[2.c/	.	.	.
8r	8rB<	.	.	.	.
8C 8CC\	8G< 8E</	.	.	pp >	.
4C 4FF\	4A< 4F</	.	.	.	.
8C 8FF\	8A< 8F</	.	.	]]	.
!!LO:LB:g=original
=103	=103	=103	=103	=103	=103
4C 4CC\	4G</ 4E</	2.c/]	.	>	.
8C 8CC\	8G</ 8E</	.	.	.	.
4C 4FF\	4A</ 4F</	.	.	.	.
8F 8FF\	8A</ 8F</	.	.	.	.
*	*v	*v	*	*	*
=104	=104	=104	=104	=104
4C\ 4CC\	4c< 4G< 4E</	.	.	.
8C 8CC\	8c< 8G< 8E</	.	.	.
4C 4FF\	4c< 4A< 4F</	.	.	.
8C 8FF\	8c< 8A< 8F</	.	.	.
=105	=105	=105	=105	=105
4C 4CC\	4c< 4G< 4E</	.	.	.
8C 8CC\	8c< 8G< 8E</	.	.	.
4C 4FF\	8c< 8A< 8F</	.	.	.
.	8A<^^/L	.	]	.
8AA 8FF\	8c<^^/J	.	.	.
=106	=106	=106	=106	=106
8C 8EE\	8G</	.	.	.
8r	8r	.	.	.
8r	8r	.	.	.
8cL 8G 8E 8C\	8eeL 8cc 8g'\	.	ff	.
8c 8G 8E 8C\	8ee 8cc 8g'\	.	.	.
8cJ 8G 8E 8C\	8ggJ 8g'\	.	.	.
=107	=107	=107	=107	=107
4B 4G 4D 4BB\	4.dd 4.g^^\	.	.	.
8B 8G 8D 8BB\	.	.	.	.
(4B-X 4G 4D 4BB-X\	(4dd 4g\	.	.	.
8A 8AA\)	8ee 8cc#X 8g\)	.	.	.
!!LO:LB:g=original
=108	=108	=108	=108	=108
8AL 8F 8D\	8ffL 8dd 8f'\	.	.	.
8A 8F 8D\	8ee 8e'\	.	.	.
8AJ 8F 8D\	8ffJ 8f'\	.	.	.
8GL 8F 8D 8GG/	8ggL 8g'\	.	.	.
8G 8F 8D 8GG/	8aa 8a'\	.	.	.
8GJ 8F 8D 8GG/	8bbJ 8b'\	.	.	.
=109	=109	=109	=109	=109
4C 4CC/	4ccc 4ee 4cc\	.	.	.
8r	8r	.	.	.
4c 4G 4E 4C\	4ccc 4gg 4ee 4cc\	.	.	.
8r	8r	.	.	.
=110	=110	=110	=110	=110
4C 4CC/	4ccc 4gg 4ee 4cc\	.	.	.
8r	8r	.	.	.
4c 4G 4E 4C\	4ccc 4gg 4ee 4cc\	.	.	.
8r	8r	.	.	.
=111	=111	=111	=111	=111
4C 4CC/	4ccc 4gg 4ee 4cc\	.	.	.
8r	8r	.	.	.
4r	4r	.	.	.
8r	8r	.	.	.
=112	=112	=112	=112	=112
4c 4G 4E 4C\	4ccc 4gg 4ee 4cc\	.	.	.
8r	8r	.	.	.
4r	4r	.	.	.
8r	8r	.	.	.
=113	=113	=113	=113	=113
8qC 8qCC/	8qc/	.	.	.
2.C 2.CC;/	2.c;/	.	.	.
==	==	==	==	==
*-	*-	*-	*-	*-
!!!system-decoration: {(p1)}
!!!RDF**kern: > = above
!!!RDF**kern: < = below
!!!ENC: Berenika Jozajtis
!!!END: 2022-08-21
!!!ENC: Kamil Watkowski
!!!END: 2022-09-27
